assets/icons/twitter.svg

<svg fill="none" height="20" viewBox="0 0 23 20" width="23" xmlns="http://www.w3.org/2000/svg"><path d="m22.9914 1.95021c.0001-.17664-.0466-.35014-.1353-.50286-.0888-.15271-.2164-.27918-.3699-.36651-.1536-.087338-.3275-.132424-.5041-.13067-.1767.001755-.3497.05029-.5014.14066-.5853.34838-1.2155.61518-1.873.793-.9391-.80577-2.1367-1.246701-3.374-1.242194-1.3575.001562-2.6611.530594-3.6358 1.475384s-1.544 2.23138-1.5879 3.5881c-2.67598-.42674-5.10132-1.82348-6.81351-3.92386-.10316-.12517-.23491-.22369-.38414-.28726-.14922-.06357-.31155-.09032-.47328-.07799-.16164.01331-.3176.06579-.4544.15291-.13681.08711-.25033.20624-.33076.34709-.41247.71981-.64937 1.52675-.69145 2.3553s.11184 1.65535.44926 2.41325l-.00195.00195c-.15165.0934-.27681.22415-.36349.37974-.08669.1556-.13201.33083-.13163.50894-.00183.14692.00698.29379.02637.43945.10214 1.25826.65979 2.43606 1.56836 3.31246-.06163.1175-.09925.246-.11065.3781-.01141.1321.00364.2652.04424.3915.39612 1.2341 1.2385 2.276 2.36231 2.9218-1.14176.4415-2.37458.5955-3.58985.4483-.22492-.0282-.45277.0208-.64615.1391s-.34082.2988-.41813.5119c-.077313.2131-.079906.4461-.00736.6609.07255.2148.21594.3985.40664.5211 2.0901 1.3462 4.52368 2.0619 7.00977 2.0615 2.8193.0317 5.57-.8692 7.8242-2.5625 2.2543-1.6934 3.8858-4.0843 4.6406-6.80079.3531-1.18337.5333-2.41153.5352-3.64644 0-.06543 0-.13281-.001-.20019.5221-.56307.9266-1.2247 1.1897-1.94611.2631-.7214.3795-1.48807.3425-2.25506zm-3.3066 3.21191c-.1652.19534-.2488.44679-.2334.70215.0097.165.0088.331.0088.4873-.0021 1.04354-.155 2.0813-.4541 3.08106-.6165 2.31137-1.9909 4.34907-3.903 5.78657-1.912 1.4376-4.2512 2.1919-6.6429 2.1421-.85912.0003-1.71528-.1007-2.55078-.3007 1.06541-.3434 2.06159-.8727 2.94238-1.5635.16223-.1278.28095-.3026.33989-.5004.05894-.1979.05519-.4092-.01071-.6049-.06591-.1957-.19075-.3661-.3574-.488-.16664-.1219-.36693-.1893-.57338-.1929-.83117-.0129-1.62487-.3479-2.21387-.9345.14942-.0283.29786-.0635.44532-.1055.21601-.0615.40505-.1939.53666-.3759.13162-.1819.19816-.4029.18892-.6273-.00925-.2244-.09375-.4392-.23989-.6097-.14615-.1706-.34543-.2869-.56577-.3305-.48246-.0952-.93645-.3005-1.32668-.5998-.39023-.29925-.70619-.68449-.92332-1.12574.18073.02466.36261.03998.54492.0459.21659.00327.4286-.06243.60538-.1876s.30917-.30332.37802-.50869c.06598-.20724.06259-.43034-.00967-.63547-.07225-.20514-.20943-.38111-.39072-.50125-.43985-.29303-.80015-.69058-1.04864-1.15705-.24849-.46646-.3774-.98728-.37519-1.51579 0-.0664.00195-.13281.00586-.19824 2.24126 2.09025 5.14832 3.32244 8.20897 3.47949.1545.00608.3084-.02302.45-.0851.1416-.06209.2672-.15554.3674-.2733.0992-.1189.1694-.2592.2052-.40985.0357-.15064.036-.30753.0008-.45831-.0572-.23864-.0863-.48313-.0869-.72852.0009-.85547.3412-1.67564.9461-2.28054s1.425-.94513 2.2805-.94603c.4401-.00118.8757.08889 1.2793.26454s.7663.43305 1.0654.75597c.1154.12408.2605.21659.4217.26873s.333.06218.4992.02916c.4108-.07995.8157-.18761 1.2119-.32226-.2702.55297-.6156 1.06594-1.0263 1.52437z" fill="#64748b"/></svg>

<svg width="23" height="20" viewBox="0 0 23 20" fill="none" xmlns="http://www.w3.org/2000/svg">
<path d="M22.9914 1.95021C22.9915 1.77357 22.9448 1.60007 22.8561 1.44735C22.7673 1.29464 22.6397 1.16817 22.4862 1.08084C22.3326 0.993502 22.1587 0.948416 21.9821 0.95017C21.8054 0.951925 21.6324 1.00046 21.4807 1.09083C20.8954 1.43921 20.2652 1.70601 19.6077 1.88383C18.6686 1.07806 17.471 0.637129 16.2337 0.641636C14.8762 0.643198 13.5726 1.17223 12.5979 2.11702C11.6232 3.06181 11.0539 4.3484 11.01 5.70512C8.33402 5.27838 5.90868 3.88164 4.19649 1.78126C4.09333 1.65609 3.96158 1.55757 3.81235 1.494C3.66313 1.43043 3.5008 1.40368 3.33907 1.41601C3.17743 1.42932 3.02147 1.4818 2.88467 1.56892C2.74786 1.65603 2.63434 1.77516 2.55391 1.91601C2.14144 2.63582 1.90454 3.44276 1.86246 4.27131C1.82038 5.09986 1.9743 5.92666 2.31172 6.68456L2.30977 6.68651C2.15812 6.77991 2.03296 6.91066 1.94628 7.06625C1.85959 7.22185 1.81427 7.39708 1.81465 7.57519C1.81282 7.72211 1.82163 7.86898 1.84102 8.01464C1.94316 9.2729 2.50081 10.4507 3.40938 11.3271C3.34775 11.4446 3.31013 11.5731 3.29873 11.7052C3.28732 11.8373 3.30237 11.9704 3.34297 12.0967C3.73909 13.3308 4.58147 14.3727 5.70528 15.0185C4.56352 15.46 3.3307 15.614 2.11543 15.4668C1.89051 15.4386 1.66266 15.4876 1.46928 15.6059C1.2759 15.7242 1.12846 15.9047 1.05115 16.1178C0.973837 16.3309 0.971244 16.5639 1.04379 16.7787C1.11634 16.9935 1.25973 17.1772 1.45043 17.2998C3.54053 18.646 5.97411 19.3617 8.4602 19.3613C11.2795 19.393 14.0302 18.4921 16.2844 16.7988C18.5387 15.1054 20.1702 12.7145 20.925 9.99801C21.2781 8.81464 21.4583 7.58648 21.4602 6.35157C21.4602 6.28614 21.4602 6.21876 21.4592 6.15138C21.9813 5.58831 22.3858 4.92668 22.6489 4.20527C22.912 3.48387 23.0284 2.7172 22.9914 1.95021ZM19.6848 5.16212C19.5196 5.35746 19.436 5.60891 19.4514 5.86427C19.4611 6.02927 19.4602 6.19527 19.4602 6.35157C19.4581 7.39511 19.3052 8.43287 19.0061 9.43263C18.3896 11.744 17.0152 13.7817 15.1031 15.2192C13.1911 16.6568 10.8519 17.4111 8.4602 17.3613C7.60108 17.3616 6.74492 17.2606 5.90942 17.0606C6.97483 16.7172 7.97101 16.1879 8.8518 15.4971C9.01403 15.3693 9.13275 15.1945 9.19169 14.9967C9.25063 14.7988 9.24688 14.5875 9.18098 14.3918C9.11507 14.1961 8.99023 14.0257 8.82358 13.9038C8.65694 13.7819 8.45665 13.7145 8.2502 13.7109C7.41903 13.698 6.62533 13.363 6.03633 12.7764C6.18575 12.7481 6.33419 12.7129 6.48165 12.6709C6.69766 12.6094 6.8867 12.477 7.01831 12.295C7.14993 12.1131 7.21647 11.8921 7.20723 11.6677C7.19798 11.4433 7.11348 11.2285 6.96734 11.058C6.82119 10.8874 6.62191 10.7711 6.40157 10.7275C5.91911 10.6323 5.46512 10.427 5.07489 10.1277C4.68466 9.82845 4.3687 9.44321 4.15157 9.00196C4.3323 9.02662 4.51418 9.04194 4.69649 9.04786C4.91308 9.05113 5.12509 8.98543 5.30187 8.86026C5.47865 8.73509 5.61104 8.55694 5.67989 8.35157C5.74587 8.14433 5.74248 7.92123 5.67022 7.7161C5.59797 7.51096 5.46079 7.33499 5.2795 7.21485C4.83965 6.92182 4.47935 6.52427 4.23086 6.0578C3.98237 5.59134 3.85346 5.07052 3.85567 4.54201C3.85567 4.47561 3.85762 4.4092 3.86153 4.34377C6.10279 6.43402 9.00985 7.66621 12.0705 7.82326C12.225 7.82934 12.3789 7.80024 12.5205 7.73816C12.6621 7.67607 12.7877 7.58262 12.8879 7.46486C12.9871 7.34596 13.0573 7.20566 13.0931 7.05501C13.1288 6.90437 13.1291 6.74748 13.0939 6.5967C13.0367 6.35806 13.0076 6.11357 13.007 5.86818C13.0079 5.01271 13.3482 4.19254 13.9531 3.58764C14.558 2.98274 15.3781 2.64251 16.2336 2.64161C16.6737 2.64043 17.1093 2.7305 17.5129 2.90615C17.9165 3.0818 18.2792 3.3392 18.5783 3.66212C18.6937 3.7862 18.8388 3.87871 19 3.93085C19.1612 3.98299 19.333 3.99303 19.4992 3.96001C19.91 3.88006 20.3149 3.7724 20.7111 3.63775C20.4409 4.19072 20.0955 4.70369 19.6848 5.16212Z" fill="#64748B"/>
</svg>
